X:1
T:Tullymore House
M:9/8
L:1/8
Q:80
C:Bruce Gandy
S:Jig
K:HP
|: {gef}e2fg{a}fg{a}B{d}B{e}B | \
{g}efga{GdG}afgf | \
{gef}e2fg{a}fg{a}B{d}B{e}B |
{gef}edB{g}dB{d}A{gBd}B2d :: \
e{g}e{A}e{gef}edB{g}dB{d}A | \
{g}Be{A}e{g}efg{fg}f2e |
{g}d{e}d{G}d{gde}dBd{g}dB{d}A | \
{gef}edB{g}dB{d}A{gBd}B2d :: \
{g}efga2{GdG}a{fg}f2d |
{a}g2{GdG}g{a}fgf{gef}edB | \
{g}efga2{GdG}a{fg}f2d | \
{gef}edB{g}dB{d}A{gBd}B3 :|
